!!!OTL: Fanshen le
!!!ARE: Asia, China,ÿHubei Huangpuo
!! I, 387
!!!SCT: C2143
!!!YEM: Copyright 1995, estate of Helmut Schaffrath.
**kern
*ICvox
*Ivox
*M2/4
*k[]
*C:
{8g
8g
8.g
16g
=1
8g
4g
16a
16cc
=2
8dd
4dd
8cc
=3
8.cc
16a
4g}
=4
{8cc
8cc
8cc
16e
16g
=5
16a
16cc
8e
4g
=6
8a
4g
8a
=7
8cc
4dd
8cc}
=8
{8cc
8cc
8cc
8g
=9
8cc
4cc
8a
=10
8.g
16e
4g
=11
8a
16dd
16dd
8cc
8a
=12
8g
8e
4g}
=13
{8dd
4dd
8cc
=14
8.cc
16a
4g
=15
8.cc
16cc
8cc
8g
=16
8cc
4cc
8a
=17
8.g
16e
4g}
==
!!!AGN: Xiaodiao, Sijimang diao
!!!ONB: ESAC (Essen Associative Code) Database: SENGANSU
!!!AMT: simple duple
!!!AIN: vox
!!!EED: Helmut Schaffrath
!!!EEV: 1.0
*-
